src/assets/icons/phone.svg

<?xml version="1.0" encoding="iso-8859-1"?>
<!-- Generator: Adobe Illustrator 19.0.0, SVG Export Plug-In . SVG Version: 6.00 Build 0)  -->
<svg version="1.1" id="Capa_1" xmlns="http://www.w3.org/2000/svg" xmlns:xlink="http://www.w3.org/1999/xlink" x="0px" y="0px"
	 viewBox="0 0 384 384" style="enable-background:new 0 0 384 384;" xml:space="preserve">
<g>
	<g>
		<path d="M353.188,252.052c-23.51,0-46.594-3.677-68.469-10.906c-10.719-3.656-23.896-0.302-30.438,6.417l-43.177,32.594
			c-50.073-26.729-80.917-57.563-107.281-107.26l31.635-42.052c8.219-8.208,11.167-20.198,7.635-31.448
			c-7.26-21.99-10.948-45.063-10.948-68.583C132.146,13.823,118.323,0,101.333,0H30.813C13.823,0,0,13.823,0,30.813
			C0,225.563,158.438,384,353.188,384c16.99,0,30.813-13.823,30.813-30.813v-70.323C384,265.875,370.177,252.052,353.188,252.052z"
			/>
	</g>
</g>
<g>
</g>
<g>
</g>
<g>
</g>
<g>
</g>
<g>
</g>
<g>
</g>
<g>
</g>
<g>
</g>
<g>
</g>
<g>
</g>
<g>
</g>
<g>
</g>
<g>
</g>
<g>
</g>
<g>
</g>
</svg>

<svg width="384" height="384" viewBox="0 0 384 384" fill="none" xmlns="http://www.w3.org/2000/svg">
<g clip-path="url(#clip0)">
<path d="M353.188 252.052C329.678 252.052 306.594 248.375 284.719 241.146C274 237.49 260.823 240.844 254.281 247.563L211.104 280.157C161.031 253.428 130.187 222.594 103.823 172.897L135.458 130.845C143.677 122.637 146.625 110.647 143.093 99.397C135.833 77.407 132.145 54.334 132.145 30.814C132.146 13.823 118.323 0 101.333 0H30.813C13.823 0 0 13.823 0 30.813C0 225.563 158.438 384 353.188 384C370.178 384 384.001 370.177 384.001 353.187V282.864C384 265.875 370.177 252.052 353.188 252.052Z" fill="#204051"/>
</g>
<defs>
<clipPath id="clip0">
<rect width="384" height="384" fill="white"/>
</clipPath>
</defs>
</svg>
